X:1
T:James Gibb editions
T:Si come crescon - Monteverdi
T:#
%%score [ 1 2 3 ]
L:1/8
Q:1/4=121
M:4/4
K:C
V:1 treble nm="Soprano I" snm="S I"
V:2 treble nm="Soprano II" snm="S II"
V:3 treble nm="Alto" snm="A"
V:1
"^Sì come crescon""^Claudio Monteverdi\n(1567-1643)" z2 E2 E2 A2 | G3 c B2 c2 | c2 c2 B4 | c6 z2 :| %4
w: Sì co- me|cres- con al- la|ter- ra~~i fio-|ri|
w: Sì co- me~~or|cre- sce a- gli~~au-|gel- li~~il can-|to|
w: Ma sì co-|me tra fron- de~~e|fior, e can-|ti|
 z2 e2 e2 d2 | c2 c2 B2 e2 |[M:4/4] d3 c B4 | ^c4 z4 | z4 z2 A2 | B2 G2 (ABcd | e2) B2 c2 e2 | %11
w: Co- sì~~a voi|la bel- lez- za~~o|mio te- so-|ro|E|a me'l fo\- * * *|* co~~on- d'io mi|
w: Co- sì~~a voi|la vir- tu- de~~o|mia spe- ran-|za|E|a me~~un do\- * * *|* lor tal ch'o-|
w: Can- gian- si~~in|frut- ti, co- sì~~in|gran pie- ta-|de|Can-|gia- te~~an- cor * * *|* voi don- na|
 d4 c4 | B4 A2 c2- | c2 B4 A2 | ^G4 A4 | (B2 A3 ^G/F/ G2) | A8 |] %17
w: strug- go~~e|mo- ro, on\-|* d'io mi|strug- go~~e|mo\- * * * *|ro.|
w: gn'al- tro~~a-|van- za, tal|* ch'o- gn'al-|tro a-|van\- * * * *|za.|
w: la bel-|ta- de, voi|* don- na|la bel-|ta\- * * * *|de.|
V:2
 z2 G2 G2 c2 | B3 e d2 e2 | e2 c2 d4 | e6 z2 :| z2 c2 c2 B2 | A2 A2 ^G2 c2 |[M:4/4] B2 A2 ^G4 | %7
w: Sì co- me|cres- con al- la|ter- ra~~i fio-|ri|Co- sì~~a voi|la bel- lez- za~~o|mio te- so-|
w: Sì co- me~~or|cre- sce a- gli~~au-|gel- li~~il can-|to|Co- sì~~a voi|la vir- tu- de~~o|mia spe- ran-|
w: Ma sì co-|me tra fron- de~~e|fior, e can-|ti|Can- gian- si~~in|frut- ti, co- sì~~in|gran pie- ta-|
 A4 A4 | B2 =G2 (ABcd | e2) B2 c2 A2 | B2 G2 A2 c2 | B4 A4 | ^G4 A4 | z4 z2 c2- | c2 B4 A2 | %15
w: ro E|a me'l fo\- * * *|* co~~on- d'io e|a me'l fo- co~~on-|d'io mi|strug- go,|on\-|* d'io mi|
w: za E|a me~~un do\- * * *|* lor tal E|a me~~un do- lor|tal ch'o-|gn'al- tro,|tal|* ch'o- gn'al-|
w: de Can-|gia- te~~an- cor * * *|* vo- i, can-|gia- te an- cor|vo- i|don- na,|voi|* don- na|
 ^G2 A2 B4 | c8 |] %17
w: strug- go~~e mo-|ro.|
w: tro a- van-|za.|
w: la bel- ta-|de.|
V:3
 z2 C2 C2 A,2 | E3 C G2 E2 | A2 A2 G4 | C6 z2 :| z2 A,2 C2 G,2 | A,2 A,2 E2 C2 |[M:4/4] D2 D2 E4 | %7
w: Sì co- me|cres- con al- la|ter- ra~~i fio-|ri|Co- sì~~a voi|la bel- lez- za~~o|mio te- so-|
w: Sì co- me~~or|cre- sce a- gli~~au-|gel- li~~il can-|to|Co- sì~~a voi|la vir- tu- de~~o|mia spe- ran-|
w: Ma sì co-|me tra fron- de~~e|fior, e can-|ti|Can- gian- si~~in|frut- ti, co- sì~~in|gran pie- ta-|
 A,4 z2 A2 | G4 (F4 | E4) A,2 F2 | E4 A,2 A,2 | B,2 G,2 (A,B,CD | E2) E2 A,2 A2 | G4 F4 | %14
w: ro mi|strug- go~~e|mo- ro, e|mo- ro, e|a me'l fo\- * * *|* co~on- d'io mi|strug- go~~e|
w: za ch'o-|gn'al- tro~~a-|van- za, a-|van- za, e|a me~un do\- * * *|* lor tal ch'o-|gn'al- tro~~a-|
w: de la|bel- ta\-|* de, bel-|ta- de, can-|gia- te~~an- cor * * *|* voi don- na|la bel-|
 E4 A,2 F2 | E8 | A,8 |] %17
w: mo- ro, e|mo-|ro.|
w: van- za, a-|van-|za.|
w: ta- de, bel-|ta-|de.|

